icons/File_2_filled.svg

<svg width="24" height="24" viewBox="0 0 24 24" fill="none" xmlns="http://www.w3.org/2000/svg">
<path fill-rule="evenodd" clip-rule="evenodd" d="M13.25,2.25v5.25c0,0.69036 0.5596,1.25 1.25,1.25h5.25v11.25c0,0.9665 -0.7835,1.75 -1.75,1.75h-12c-0.9665,0 -1.75,-0.7835 -1.75,-1.75v-16c0,-0.9665 0.7835,-1.75 1.75,-1.75zM19.2374,7.17678c0.0238,0.0238 0.0469,0.04822 0.0692,0.07322h-4.5566v-4.55657c0.025,0.02228 0.0494,0.04533 0.0732,0.06913zM8,10c-0.41421,0 -0.75,0.3358 -0.75,0.75c0,0.4142 0.33579,0.75 0.75,0.75h4c0.4142,0 0.75,-0.3358 0.75,-0.75c0,-0.4142 -0.3358,-0.75 -0.75,-0.75zM8,14.5h8c0.4142,0 0.75,-0.3358 0.75,-0.75c0,-0.4142 -0.3358,-0.75 -0.75,-0.75h-8c-0.41421,0 -0.75,0.3358 -0.75,0.75c0,0.4142 0.33579,0.75 0.75,0.75zM8,16c-0.41421,0 -0.75,0.3358 -0.75,0.75c0,0.4142 0.33579,0.75 0.75,0.75h6c0.4142,0 0.75,-0.3358 0.75,-0.75c0,-0.4142 -0.3358,-0.75 -0.75,-0.75z" fill="#002B51"/>
</svg>

<svg width="24" height="24" viewBox="0 0 24 24" fill="none" xmlns="http://www.w3.org/2000/svg">
<path fill-rule="evenodd" clip-rule="evenodd" d="M6 2.25C5.0335 2.25 4.25 3.0335 4.25 4V20C4.25 20.9665 5.0335 21.75 6 21.75H18C18.9665 21.75 19.75 20.9665 19.75 20V8.75H14.5C13.8096 8.75 13.25 8.19036 13.25 7.5V2.25H6ZM19.2374 7.17678C19.2612 7.20058 19.2843 7.225 19.3066 7.25H14.75V2.69343C14.775 2.71571 14.7994 2.73876 14.8232 2.76256L19.2374 7.17678ZM8 10C7.58579 10 7.25 10.3358 7.25 10.75C7.25 11.1642 7.58579 11.5 8 11.5H12C12.4142 11.5 12.75 11.1642 12.75 10.75C12.75 10.3358 12.4142 10 12 10H8ZM7.25 13.75C7.25 13.3358 7.58579 13 8 13H16C16.4142 13 16.75 13.3358 16.75 13.75C16.75 14.1642 16.4142 14.5 16 14.5H8C7.58579 14.5 7.25 14.1642 7.25 13.75ZM8 16C7.58579 16 7.25 16.3358 7.25 16.75C7.25 17.1642 7.58579 17.5 8 17.5H14C14.4142 17.5 14.75 17.1642 14.75 16.75C14.75 16.3358 14.4142 16 14 16H8Z" fill="#002B51"/>
</svg>
